!!!OTL: Shishu maque
!!!ARE: Asia, China, Fujian, Pucheng
!! II, 617
!!!SCT: C1540
!!!YEM: Copyright 1995, estate of Helmut Schaffrath.
**kern
*ICvox
*Ivox
*M2/4
*k[f#]
*G:
{8e
8g
8e
8g
=1
16g
16a
16dd
16b
8a
8r}
=2
{8.e
16g
8.e
16g
=3
16g
16a
8b
8a
8r}
=4
{8dd
8dd
16ee
16gg
8dd
=5
16b
16a
8g
8a
8r}
=6
{8.e
16g
8.e
16g
=7
16a
16b
8g
8a
8r}
=8
{8dd
8dd
8ee
8dd
=9
16b
16a
8g
8a
8r}
=10
{8.e
16g
8.e
16g
=11
16a
16b
8g
8a
8r}
=12
{8a
16b
16dd
8a
8b
=13
8r
8b
8r
8ee
=14
8b
8dd
8dd
8r}
=15
{8ee
16ee
16gg
16ee
16dd
8b
=16
16dd
16b
4a
8r}
=17
{8e
8g
8e
8g
=18
16g
16a
8b
8a
8r}
=19
{8.a
16b
8a
8g
=20
16e
16d
8e
8d
8d}
=21
{16e
16g
8B
8d
8r}
=22
{16e
16g
8B
8d
8r}
=23
{8a
16b
16dd
8a
[8b
=24
8b]
16b
16b
8b
8r
=25
8.ee
16b
16dd
16b
8dd}
=26
{8.g
16a
16g
16e
8d
=27
8e
8r}
{8g
16a
16b
=28
8g
8d
8e
16a
16b
=29
8g
8d
[4e
=30
4e]
4r}
==
!!!AGN: Xiaodiao, Erge
!!!AMT: simple duple
!!!AIN: vox
!!!EED: Helmut Schaffrath
!!!EEV: 1.0
*-
!!!ONB: Tied note syntax fixed by Craig Sapp, 2004/05/03/
